report_00007_2020-12-11T15:55:29.892Z/first-cpu-idle/comparison/line/1_vs_2.svg

<svg width="640" height="500" xmlns="http://www.w3.org/2000/svg" xmlns:xlink="http://www.w3.org/1999/xlink"><path fill="#fff" d="M0 0h640v500H0z"/><defs><path id="d" stroke-width=".222" stroke="currentColor" d="M-1-1h2v2h-2z"/><path id="b" stroke-width=".222" stroke="currentColor" d="M0-1.33l-1.33 2h2.66z"/><path id="f" stroke-width=".222" stroke="currentColor" d="M0 1.33L1.265.411.782-1.067l-1.564-.009-.483 1.487z"/><use xlink:href="#b" id="c" stroke="currentColor" transform="rotate(180)"/><use xlink:href="#d" id="e" stroke="currentColor" transform="rotate(45)"/><circle id="a" stroke-width=".222" stroke="currentColor" cx="0" cy="0" r="1"/></defs><g fill="none" color="#000" stroke="currentColor"><path stroke="#000" d="M62.2 413.2h9m543.8 0h-9"/><text transform="translate(53.9 417.1)" stroke="none" fill="#000" font-family="Arial" font-size="12" text-anchor="end"><tspan>2000</tspan></text></g><g fill="none" color="#000" stroke="currentColor"><path stroke="#000" d="M62.2 350.3h9m543.8 0h-9"/><text transform="translate(53.9 354.2)" stroke="none" fill="#000" font-family="Arial" font-size="12" text-anchor="end"><tspan>2500</tspan></text></g><g fill="none" color="#000" stroke="currentColor"><path stroke="#000" d="M62.2 287.5h9m543.8 0h-9"/><text transform="translate(53.9 291.4)" stroke="none" fill="#000" font-family="Arial" font-size="12" text-anchor="end"><tspan>3000</tspan></text></g><g fill="none" color="#000" stroke="currentColor"><path stroke="#000" d="M62.2 224.6h9m543.8 0h-9"/><text transform="translate(53.9 228.5)" stroke="none" fill="#000" font-family="Arial" font-size="12" text-anchor="end"><tspan>3500</tspan></text></g><g fill="none" color="#000" stroke="currentColor"><path stroke="#000" d="M62.2 161.8h9m543.8 0h-9"/><text transform="translate(53.9 165.7)" stroke="none" fill="#000" font-family="Arial" font-size="12" text-anchor="end"><tspan>4000</tspan></text></g><g fill="none" color="#000" stroke="currentColor"><path stroke="#000" d="M62.2 98.9h9m543.8 0h-9"/><text transform="translate(53.9 102.8)" stroke="none" fill="#000" font-family="Arial" font-size="12" text-anchor="end"><tspan>4500</tspan></text></g><g fill="none" color="#000" stroke="currentColor"><path stroke="#000" d="M62.2 36h9M615 36h-9"/><text transform="translate(53.9 39.9)" stroke="none" fill="#000" font-family="Arial" font-size="12" text-anchor="end"><tspan>5000</tspan></text></g><g fill="none" color="#000" stroke="currentColor"><path stroke="#000" d="M62.2 428v-9m0-400.9v9"/><text transform="translate(62.2 449.9)" stroke="none" fill="#000" font-family="Arial" font-size="12" text-anchor="middle"><tspan>0</tspan></text></g><g fill="none" color="#000" stroke="currentColor"><path stroke="#000" d="M118 428v-9m0-400.9v9"/><text transform="translate(118 449.9)" stroke="none" fill="#000" font-family="Arial" font-size="12" text-anchor="middle"><tspan>10</tspan></text></g><g fill="none" color="#000" stroke="currentColor"><path stroke="#000" d="M173.9 428v-9m0-400.9v9"/><text transform="translate(173.9 449.9)" stroke="none" fill="#000" font-family="Arial" font-size="12" text-anchor="middle"><tspan>20</tspan></text></g><g fill="none" color="#000" stroke="currentColor"><path stroke="#000" d="M229.7 428v-9m0-400.9v9"/><text transform="translate(229.7 449.9)" stroke="none" fill="#000" font-family="Arial" font-size="12" text-anchor="middle"><tspan>30</tspan></text></g><g fill="none" color="#000" stroke="currentColor"><path stroke="#000" d="M285.6 428v-9m0-400.9v9"/><text transform="translate(285.6 449.9)" stroke="none" fill="#000" font-family="Arial" font-size="12" text-anchor="middle"><tspan>40</tspan></text></g><g fill="none" color="#000" stroke="currentColor"><path stroke="#000" d="M341.4 428v-9m0-400.9v9"/><text transform="translate(341.4 449.9)" stroke="none" fill="#000" font-family="Arial" font-size="12" text-anchor="middle"><tspan>50</tspan></text></g><g fill="none" color="#000" stroke="currentColor"><path stroke="#000" d="M397.2 428v-9m0-400.9v9"/><text transform="translate(397.2 449.9)" stroke="none" fill="#000" font-family="Arial" font-size="12" text-anchor="middle"><tspan>60</tspan></text></g><g fill="none" color="#000" stroke="currentColor"><path stroke="#000" d="M453.1 428v-9m0-400.9v9"/><text transform="translate(453.1 449.9)" stroke="none" fill="#000" font-family="Arial" font-size="12" text-anchor="middle"><tspan>70</tspan></text></g><g fill="none" color="#000" stroke="currentColor"><path stroke="#000" d="M508.9 428v-9m0-400.9v9"/><text transform="translate(508.9 449.9)" stroke="none" fill="#000" font-family="Arial" font-size="12" text-anchor="middle"><tspan>80</tspan></text></g><g fill="none" color="#000" stroke="currentColor"><path stroke="#000" d="M564.7 428v-9m0-400.9v9"/><text transform="translate(564.7 449.9)" stroke="none" fill="#000" font-family="Arial" font-size="12" text-anchor="middle"><tspan>90</tspan></text></g><path stroke="#000" d="M62.2 18.1V428H615V18.1H62.2z" fill="none" color="#000"/><text transform="translate(279.8 467.9)" stroke="none" fill="#000" font-family="Arial" font-size="12" text-anchor="end" color="#000"><tspan>pages</tspan></text><path stroke="#9400D3" d="M288.1 464h42.2M62.2 26l5.6 392.2 5.6.2 5.6-4.5 5.5 5.5 5.6-.7 5.6.4 5.6-.5 5.6.9 5.6-.4 5.5.9 5.6-25.8 5.6 24.7 5.6.8 5.6-.6 5.6-7 5.5 6.9 5.6.6 5.6.4 5.6-2.8 5.6 2.3 5.6.4 5.5-29.2 5.6 20.6 5.6 7.7 5.6 1.1 5.6-1.8 5.6.5 5.5.7 5.6.2 5.6-1.1 5.6.6 5.6.2 5.6.4 5.6-12.8 5.5 12.5 5.6.4 5.6-.7 5.6-.3 5.6.7 5.6-.9 5.5 1.2 5.6-1.5 5.6-7.4 5.6 8.3 5.6-9.9 5.6 8.7 5.5 1.1 5.6.4 5.6-.7 5.6-94.5 5.6 94.4 5.6 1.2 5.5-.9 5.6-1.1 5.6 2 5.6-30 5.6 28.7 5.6.6 5.5.8 5.6-10.1 5.6 10h5.6l5.6-.5 5.6-1 5.5 1.4 5.6-.2 5.6.4 5.6-15.6 5.6 15.4 5.6-.1 5.6-.4 5.5-.2 5.6.7 5.6-.2h5.6l5.6-1.4 5.6 1.6 5.5-.3 5.6-14.1 5.6 13 5.6.9 5.6.4 5.6-.5 5.5-.5 5.6-365 5.6 365h5.6l5.6 1.3 5.6-28.9 5.5 28.2 5.6-.3 5.6.9 5.6-.9h5.6l5.6-7.7 5.5 7.8 5.6-.4 5.6 1 5.6-1.4" fill="none" color="#000"/><text transform="translate(279.8 485.9)" stroke="none" fill="#000" font-family="Arial" font-size="12" text-anchor="end" color="#000"><tspan>pages+cached</tspan></text><path stroke="#009E73" d="M288.1 482h42.2M62.2 419.7l5.6-4.4 5.6-27.4L79 416l5.5.4 5.6-29.2 5.6 29.1 5.6-54 5.6 54 5.6-.3 5.5.4 5.6-29.6 5.6 29.7 5.6-.2 5.6-.1h5.6l5.5-29.1 5.6 29.3 5.6-.5 5.6.6 5.6.2 5.6-.5 5.5-28.7 5.6 29 5.6.2 5.6-.2 5.6-.2 5.6-28.6 5.5 28.9 5.6-.5 5.6.5 5.6-.3 5.6-19.5 5.6-9.5 5.6.4 5.5 28.4 5.6.3 5.6-29.3 5.6 29.8 5.6-29.5 5.6 29.1 5.5-.1 5.6-.1 5.6-.2 5.6.5 5.6-.3 5.6.5 5.5-.4 5.6.1 5.6-.1 5.6-19.4 5.6 19.6 5.6-.1 5.5-29.2 5.6 29 5.6.2 5.6-29.2 5.6 29 5.6-19 5.5 19.5 5.6-28.9 5.6-.6 5.6 29.4 5.6-29.3 5.6 29.1 5.5.2 5.6-.4 5.6.4 5.6.1 5.6-.5 5.6-28.7 5.6 28.9 5.5-29 5.6 29 5.6-.3 5.6.5 5.6-.3 5.6.2 5.5.2 5.6-.2 5.6-29.4 5.6 29.4h5.6l5.6-19.6 5.5 20 5.6-.4 5.6.1 5.6-.1 5.6-28.8 5.6-.1 5.5 29h5.6l5.6-.3 5.6.1 5.6.1 5.6-28.7 5.5 9.7 5.6 18.9h5.6l5.6-29.3" fill="none" color="#000"/><text transform="translate(479.7 467.9)" stroke="none" fill="#000" font-family="Arial" font-size="12" text-anchor="end" color="#000"><tspan>score p10=3572</tspan></text><path stroke="#56B4E9" d="M488 464h42.2m-468-248.4H615" fill="none" color="#000"/><g><text transform="translate(479.7 485.9)" stroke="none" fill="#000" font-family="Arial" font-size="12" text-anchor="end" color="#000"><tspan>score median=6500</tspan></text><path stroke="#E69F00" d="M488 482h42.2" fill="none" color="#000"/></g><g fill="none" color="#000" stroke="currentColor"><path stroke="#000" d="M62.2 18.1V428H615V18.1H62.2z"/></g></svg>

<?xml version="1.0" encoding="utf-8"  standalone="no"?>
<svg 
 width="640" height="500"
 viewBox="0 0 640 500"
 xmlns="http://www.w3.org/2000/svg"
 xmlns:xlink="http://www.w3.org/1999/xlink"
>

<title>Gnuplot</title>
<desc>Produced by GNUPLOT 5.4 patchlevel 0 </desc>

<g id="gnuplot_canvas">

<rect x="0" y="0" width="640" height="500" fill="#ffffff"/>
<defs>

	<circle id='gpDot' r='0.5' stroke-width='0.5' stroke='currentColor'/>
	<path id='gpPt0' stroke-width='0.222' stroke='currentColor' d='M-1,0 h2 M0,-1 v2'/>
	<path id='gpPt1' stroke-width='0.222' stroke='currentColor' d='M-1,-1 L1,1 M1,-1 L-1,1'/>
	<path id='gpPt2' stroke-width='0.222' stroke='currentColor' d='M-1,0 L1,0 M0,-1 L0,1 M-1,-1 L1,1 M-1,1 L1,-1'/>
	<rect id='gpPt3' stroke-width='0.222' stroke='currentColor' x='-1' y='-1' width='2' height='2'/>
	<rect id='gpPt4' stroke-width='0.222' stroke='currentColor' fill='currentColor' x='-1' y='-1' width='2' height='2'/>
	<circle id='gpPt5' stroke-width='0.222' stroke='currentColor' cx='0' cy='0' r='1'/>
	<use xlink:href='#gpPt5' id='gpPt6' fill='currentColor' stroke='none'/>
	<path id='gpPt7' stroke-width='0.222' stroke='currentColor' d='M0,-1.33 L-1.33,0.67 L1.33,0.67 z'/>
	<use xlink:href='#gpPt7' id='gpPt8' fill='currentColor' stroke='none'/>
	<use xlink:href='#gpPt7' id='gpPt9' stroke='currentColor' transform='rotate(180)'/>
	<use xlink:href='#gpPt9' id='gpPt10' fill='currentColor' stroke='none'/>
	<use xlink:href='#gpPt3' id='gpPt11' stroke='currentColor' transform='rotate(45)'/>
	<use xlink:href='#gpPt11' id='gpPt12' fill='currentColor' stroke='none'/>
	<path id='gpPt13' stroke-width='0.222' stroke='currentColor' d='M0,1.330 L1.265,0.411 L0.782,-1.067 L-0.782,-1.076 L-1.265,0.411 z'/>
	<use xlink:href='#gpPt13' id='gpPt14' fill='currentColor' stroke='none'/>
	<filter id='textbox' filterUnits='objectBoundingBox' x='0' y='0' height='1' width='1'>
	  <feFlood flood-color='#FFFFFF' flood-opacity='1' result='bgnd'/>
	  <feComposite in='SourceGraphic' in2='bgnd' operator='atop'/>
	</filter>
	<filter id='greybox' filterUnits='objectBoundingBox' x='0' y='0' height='1' width='1'>
	  <feFlood flood-color='lightgrey' flood-opacity='1' result='grey'/>
	  <feComposite in='SourceGraphic' in2='grey' operator='atop'/>
	</filter>
</defs>
<g fill="none" color="#FFFFFF" stroke="black" stroke-width="1.00" stroke-linecap="butt" stroke-linejoin="miter">
</g>
<g fill="none" color="black" stroke="currentColor" stroke-width="1.00" stroke-linecap="butt" stroke-linejoin="miter">
	<path stroke='black'  d='M62.2,413.2 L71.2,413.2 M615.0,413.2 L606.0,413.2  '/>	<g transform="translate(53.9,417.1)" stroke="none" fill="black" font-family="Arial" font-size="12.00"  text-anchor="end">
		<text><tspan font-family="Arial" > 2000</tspan></text>
	</g>
</g>
<g fill="none" color="black" stroke="currentColor" stroke-width="1.00" stroke-linecap="butt" stroke-linejoin="miter">
	<path stroke='black'  d='M62.2,350.3 L71.2,350.3 M615.0,350.3 L606.0,350.3  '/>	<g transform="translate(53.9,354.2)" stroke="none" fill="black" font-family="Arial" font-size="12.00"  text-anchor="end">
		<text><tspan font-family="Arial" > 2500</tspan></text>
	</g>
</g>
<g fill="none" color="black" stroke="currentColor" stroke-width="1.00" stroke-linecap="butt" stroke-linejoin="miter">
	<path stroke='black'  d='M62.2,287.5 L71.2,287.5 M615.0,287.5 L606.0,287.5  '/>	<g transform="translate(53.9,291.4)" stroke="none" fill="black" font-family="Arial" font-size="12.00"  text-anchor="end">
		<text><tspan font-family="Arial" > 3000</tspan></text>
	</g>
</g>
<g fill="none" color="black" stroke="currentColor" stroke-width="1.00" stroke-linecap="butt" stroke-linejoin="miter">
	<path stroke='black'  d='M62.2,224.6 L71.2,224.6 M615.0,224.6 L606.0,224.6  '/>	<g transform="translate(53.9,228.5)" stroke="none" fill="black" font-family="Arial" font-size="12.00"  text-anchor="end">
		<text><tspan font-family="Arial" > 3500</tspan></text>
	</g>
</g>
<g fill="none" color="black" stroke="currentColor" stroke-width="1.00" stroke-linecap="butt" stroke-linejoin="miter">
	<path stroke='black'  d='M62.2,161.8 L71.2,161.8 M615.0,161.8 L606.0,161.8  '/>	<g transform="translate(53.9,165.7)" stroke="none" fill="black" font-family="Arial" font-size="12.00"  text-anchor="end">
		<text><tspan font-family="Arial" > 4000</tspan></text>
	</g>
</g>
<g fill="none" color="black" stroke="currentColor" stroke-width="1.00" stroke-linecap="butt" stroke-linejoin="miter">
	<path stroke='black'  d='M62.2,98.9 L71.2,98.9 M615.0,98.9 L606.0,98.9  '/>	<g transform="translate(53.9,102.8)" stroke="none" fill="black" font-family="Arial" font-size="12.00"  text-anchor="end">
		<text><tspan font-family="Arial" > 4500</tspan></text>
	</g>
</g>
<g fill="none" color="black" stroke="currentColor" stroke-width="1.00" stroke-linecap="butt" stroke-linejoin="miter">
	<path stroke='black'  d='M62.2,36.0 L71.2,36.0 M615.0,36.0 L606.0,36.0  '/>	<g transform="translate(53.9,39.9)" stroke="none" fill="black" font-family="Arial" font-size="12.00"  text-anchor="end">
		<text><tspan font-family="Arial" > 5000</tspan></text>
	</g>
</g>
<g fill="none" color="black" stroke="currentColor" stroke-width="1.00" stroke-linecap="butt" stroke-linejoin="miter">
	<path stroke='black'  d='M62.2,428.0 L62.2,419.0 M62.2,18.1 L62.2,27.1  '/>	<g transform="translate(62.2,449.9)" stroke="none" fill="black" font-family="Arial" font-size="12.00"  text-anchor="middle">
		<text><tspan font-family="Arial" > 0</tspan></text>
	</g>
</g>
<g fill="none" color="black" stroke="currentColor" stroke-width="1.00" stroke-linecap="butt" stroke-linejoin="miter">
	<path stroke='black'  d='M118.0,428.0 L118.0,419.0 M118.0,18.1 L118.0,27.1  '/>	<g transform="translate(118.0,449.9)" stroke="none" fill="black" font-family="Arial" font-size="12.00"  text-anchor="middle">
		<text><tspan font-family="Arial" > 10</tspan></text>
	</g>
</g>
<g fill="none" color="black" stroke="currentColor" stroke-width="1.00" stroke-linecap="butt" stroke-linejoin="miter">
	<path stroke='black'  d='M173.9,428.0 L173.9,419.0 M173.9,18.1 L173.9,27.1  '/>	<g transform="translate(173.9,449.9)" stroke="none" fill="black" font-family="Arial" font-size="12.00"  text-anchor="middle">
		<text><tspan font-family="Arial" > 20</tspan></text>
	</g>
</g>
<g fill="none" color="black" stroke="currentColor" stroke-width="1.00" stroke-linecap="butt" stroke-linejoin="miter">
	<path stroke='black'  d='M229.7,428.0 L229.7,419.0 M229.7,18.1 L229.7,27.1  '/>	<g transform="translate(229.7,449.9)" stroke="none" fill="black" font-family="Arial" font-size="12.00"  text-anchor="middle">
		<text><tspan font-family="Arial" > 30</tspan></text>
	</g>
</g>
<g fill="none" color="black" stroke="currentColor" stroke-width="1.00" stroke-linecap="butt" stroke-linejoin="miter">
	<path stroke='black'  d='M285.6,428.0 L285.6,419.0 M285.6,18.1 L285.6,27.1  '/>	<g transform="translate(285.6,449.9)" stroke="none" fill="black" font-family="Arial" font-size="12.00"  text-anchor="middle">
		<text><tspan font-family="Arial" > 40</tspan></text>
	</g>
</g>
<g fill="none" color="black" stroke="currentColor" stroke-width="1.00" stroke-linecap="butt" stroke-linejoin="miter">
	<path stroke='black'  d='M341.4,428.0 L341.4,419.0 M341.4,18.1 L341.4,27.1  '/>	<g transform="translate(341.4,449.9)" stroke="none" fill="black" font-family="Arial" font-size="12.00"  text-anchor="middle">
		<text><tspan font-family="Arial" > 50</tspan></text>
	</g>
</g>
<g fill="none" color="black" stroke="currentColor" stroke-width="1.00" stroke-linecap="butt" stroke-linejoin="miter">
	<path stroke='black'  d='M397.2,428.0 L397.2,419.0 M397.2,18.1 L397.2,27.1  '/>	<g transform="translate(397.2,449.9)" stroke="none" fill="black" font-family="Arial" font-size="12.00"  text-anchor="middle">
		<text><tspan font-family="Arial" > 60</tspan></text>
	</g>
</g>
<g fill="none" color="black" stroke="currentColor" stroke-width="1.00" stroke-linecap="butt" stroke-linejoin="miter">
	<path stroke='black'  d='M453.1,428.0 L453.1,419.0 M453.1,18.1 L453.1,27.1  '/>	<g transform="translate(453.1,449.9)" stroke="none" fill="black" font-family="Arial" font-size="12.00"  text-anchor="middle">
		<text><tspan font-family="Arial" > 70</tspan></text>
	</g>
</g>
<g fill="none" color="black" stroke="currentColor" stroke-width="1.00" stroke-linecap="butt" stroke-linejoin="miter">
	<path stroke='black'  d='M508.9,428.0 L508.9,419.0 M508.9,18.1 L508.9,27.1  '/>	<g transform="translate(508.9,449.9)" stroke="none" fill="black" font-family="Arial" font-size="12.00"  text-anchor="middle">
		<text><tspan font-family="Arial" > 80</tspan></text>
	</g>
</g>
<g fill="none" color="black" stroke="currentColor" stroke-width="1.00" stroke-linecap="butt" stroke-linejoin="miter">
	<path stroke='black'  d='M564.7,428.0 L564.7,419.0 M564.7,18.1 L564.7,27.1  '/>	<g transform="translate(564.7,449.9)" stroke="none" fill="black" font-family="Arial" font-size="12.00"  text-anchor="middle">
		<text><tspan font-family="Arial" > 90</tspan></text>
	</g>
</g>
<g fill="none" color="black" stroke="currentColor" stroke-width="1.00" stroke-linecap="butt" stroke-linejoin="miter">
</g>
<g fill="none" color="black" stroke="currentColor" stroke-width="1.00" stroke-linecap="butt" stroke-linejoin="miter">
	<path stroke='black'  d='M62.2,18.1 L62.2,428.0 L615.0,428.0 L615.0,18.1 L62.2,18.1 Z  '/></g>
<g fill="none" color="black" stroke="currentColor" stroke-width="1.00" stroke-linecap="butt" stroke-linejoin="miter">
</g>
	<g id="gnuplot_plot_1" ><title>pages</title>
<g fill="none" color="black" stroke="currentColor" stroke-width="1.00" stroke-linecap="butt" stroke-linejoin="miter">
	<g transform="translate(279.8,467.9)" stroke="none" fill="black" font-family="Arial" font-size="12.00"  text-anchor="end">
		<text><tspan font-family="Arial" >pages</tspan></text>
	</g>
</g>
<g fill="none" color="black" stroke="currentColor" stroke-width="1.00" stroke-linecap="butt" stroke-linejoin="miter">
	<path stroke='rgb(148,   0, 211)'  d='M288.1,464.0 L330.3,464.0 M62.2,26.0 L67.8,418.2 L73.4,418.4 L79.0,413.9 L84.5,419.4 L90.1,418.7
		L95.7,419.1 L101.3,418.6 L106.9,419.5 L112.5,419.1 L118.0,420.0 L123.6,394.2 L129.2,418.9 L134.8,419.7
		L140.4,419.1 L146.0,412.1 L151.5,419.0 L157.1,419.6 L162.7,420.0 L168.3,417.2 L173.9,419.5 L179.5,419.9
		L185.0,390.7 L190.6,411.3 L196.2,419.0 L201.8,420.1 L207.4,418.3 L213.0,418.8 L218.5,419.5 L224.1,419.7
		L229.7,418.6 L235.3,419.2 L240.9,419.4 L246.5,419.8 L252.1,407.0 L257.6,419.5 L263.2,419.9 L268.8,419.2
		L274.4,418.9 L280.0,419.6 L285.6,418.7 L291.1,419.9 L296.7,418.4 L302.3,411.0 L307.9,419.3 L313.5,409.4
		L319.1,418.1 L324.6,419.2 L330.2,419.6 L335.8,418.9 L341.4,324.4 L347.0,418.8 L352.6,420.0 L358.1,419.1
		L363.7,418.0 L369.3,420.0 L374.9,390.0 L380.5,418.7 L386.1,419.3 L391.6,420.1 L397.2,410.0 L402.8,420.0
		L408.4,420.0 L414.0,419.5 L419.6,418.5 L425.1,419.9 L430.7,419.7 L436.3,420.1 L441.9,404.5 L447.5,419.9
		L453.1,419.8 L458.7,419.4 L464.2,419.2 L469.8,419.9 L475.4,419.7 L481.0,419.7 L486.6,418.3 L492.2,419.9
		L497.7,419.6 L503.3,405.5 L508.9,418.5 L514.5,419.4 L520.1,419.8 L525.7,419.3 L531.2,418.8 L536.8,53.8
		L542.4,418.8 L548.0,418.8 L553.6,420.1 L559.2,391.2 L564.7,419.4 L570.3,419.1 L575.9,420.0 L581.5,419.1
		L587.1,419.1 L592.7,411.4 L598.2,419.2 L603.8,418.8 L609.4,419.8 L615.0,418.4  '/></g>
	</g>
	<g id="gnuplot_plot_2" ><title>pages+cached</title>
<g fill="none" color="black" stroke="currentColor" stroke-width="1.00" stroke-linecap="butt" stroke-linejoin="miter">
	<g transform="translate(279.8,485.9)" stroke="none" fill="black" font-family="Arial" font-size="12.00"  text-anchor="end">
		<text><tspan font-family="Arial" >pages+cached</tspan></text>
	</g>
</g>
<g fill="none" color="black" stroke="currentColor" stroke-width="1.00" stroke-linecap="butt" stroke-linejoin="miter">
	<path stroke='rgb(  0, 158, 115)'  d='M288.1,482.0 L330.3,482.0 M62.2,419.7 L67.8,415.3 L73.4,387.9 L79.0,416.0 L84.5,416.4 L90.1,387.2
		L95.7,416.3 L101.3,362.3 L106.9,416.3 L112.5,416.0 L118.0,416.4 L123.6,386.8 L129.2,416.5 L134.8,416.3
		L140.4,416.2 L146.0,416.2 L151.5,387.1 L157.1,416.4 L162.7,415.9 L168.3,416.5 L173.9,416.7 L179.5,416.2
		L185.0,387.5 L190.6,416.5 L196.2,416.7 L201.8,416.5 L207.4,416.3 L213.0,387.7 L218.5,416.6 L224.1,416.1
		L229.7,416.6 L235.3,416.3 L240.9,396.8 L246.5,387.3 L252.1,387.7 L257.6,416.1 L263.2,416.4 L268.8,387.1
		L274.4,416.9 L280.0,387.4 L285.6,416.5 L291.1,416.4 L296.7,416.3 L302.3,416.1 L307.9,416.6 L313.5,416.3
		L319.1,416.8 L324.6,416.4 L330.2,416.5 L335.8,416.4 L341.4,397.0 L347.0,416.6 L352.6,416.5 L358.1,387.3
		L363.7,416.3 L369.3,416.5 L374.9,387.3 L380.5,416.3 L386.1,397.3 L391.6,416.8 L397.2,387.9 L402.8,387.3
		L408.4,416.7 L414.0,387.4 L419.6,416.5 L425.1,416.7 L430.7,416.3 L436.3,416.7 L441.9,416.8 L447.5,416.3
		L453.1,387.6 L458.7,416.5 L464.2,387.5 L469.8,416.5 L475.4,416.2 L481.0,416.7 L486.6,416.4 L492.2,416.6
		L497.7,416.8 L503.3,416.6 L508.9,387.2 L514.5,416.6 L520.1,416.6 L525.7,397.0 L531.2,417.0 L536.8,416.6
		L542.4,416.7 L548.0,416.6 L553.6,387.8 L559.2,387.7 L564.7,416.7 L570.3,416.7 L575.9,416.4 L581.5,416.5
		L587.1,416.6 L592.7,387.9 L598.2,397.6 L603.8,416.5 L609.4,416.5 L615.0,387.2  '/></g>
	</g>
	<g id="gnuplot_plot_3" ><title>score p10=3572</title>
<g fill="none" color="black" stroke="currentColor" stroke-width="1.00" stroke-linecap="butt" stroke-linejoin="miter">
	<g transform="translate(479.7,467.9)" stroke="none" fill="black" font-family="Arial" font-size="12.00"  text-anchor="end">
		<text><tspan font-family="Arial" >score p10=3572</tspan></text>
	</g>
</g>
<g fill="none" color="black" stroke="currentColor" stroke-width="1.00" stroke-linecap="butt" stroke-linejoin="miter">
	<path stroke='rgb( 86, 180, 233)'  d='M488.0,464.0 L530.2,464.0 M62.2,215.6 L67.8,215.6 L73.4,215.6 L79.0,215.6 L84.5,215.6 L90.1,215.6
		L95.7,215.6 L101.3,215.6 L106.9,215.6 L112.5,215.6 L118.0,215.6 L123.6,215.6 L129.2,215.6 L134.8,215.6
		L140.4,215.6 L146.0,215.6 L151.5,215.6 L157.1,215.6 L162.7,215.6 L168.3,215.6 L173.9,215.6 L179.5,215.6
		L185.0,215.6 L190.6,215.6 L196.2,215.6 L201.8,215.6 L207.4,215.6 L213.0,215.6 L218.5,215.6 L224.1,215.6
		L229.7,215.6 L235.3,215.6 L240.9,215.6 L246.5,215.6 L252.1,215.6 L257.6,215.6 L263.2,215.6 L268.8,215.6
		L274.4,215.6 L280.0,215.6 L285.6,215.6 L291.1,215.6 L296.7,215.6 L302.3,215.6 L307.9,215.6 L313.5,215.6
		L319.1,215.6 L324.6,215.6 L330.2,215.6 L335.8,215.6 L341.4,215.6 L347.0,215.6 L352.6,215.6 L358.1,215.6
		L363.7,215.6 L369.3,215.6 L374.9,215.6 L380.5,215.6 L386.1,215.6 L391.6,215.6 L397.2,215.6 L402.8,215.6
		L408.4,215.6 L414.0,215.6 L419.6,215.6 L425.1,215.6 L430.7,215.6 L436.3,215.6 L441.9,215.6 L447.5,215.6
		L453.1,215.6 L458.7,215.6 L464.2,215.6 L469.8,215.6 L475.4,215.6 L481.0,215.6 L486.6,215.6 L492.2,215.6
		L497.7,215.6 L503.3,215.6 L508.9,215.6 L514.5,215.6 L520.1,215.6 L525.7,215.6 L531.2,215.6 L536.8,215.6
		L542.4,215.6 L548.0,215.6 L553.6,215.6 L559.2,215.6 L564.7,215.6 L570.3,215.6 L575.9,215.6 L581.5,215.6
		L587.1,215.6 L592.7,215.6 L598.2,215.6 L603.8,215.6 L609.4,215.6 L615.0,215.6  '/></g>
	</g>
	<g id="gnuplot_plot_4" ><title>score median=6500</title>
<g fill="none" color="black" stroke="currentColor" stroke-width="1.00" stroke-linecap="butt" stroke-linejoin="miter">
	<g transform="translate(479.7,485.9)" stroke="none" fill="black" font-family="Arial" font-size="12.00"  text-anchor="end">
		<text><tspan font-family="Arial" >score median=6500</tspan></text>
	</g>
</g>
<g fill="none" color="black" stroke="currentColor" stroke-width="1.00" stroke-linecap="butt" stroke-linejoin="miter">
	<path stroke='rgb(230, 159,   0)'  d='M488.0,482.0 L530.2,482.0  '/></g>
	</g>
<g fill="none" color="#FFFFFF" stroke="rgb(230, 159,   0)" stroke-width="2.00" stroke-linecap="butt" stroke-linejoin="miter">
</g>
<g fill="none" color="black" stroke="currentColor" stroke-width="2.00" stroke-linecap="butt" stroke-linejoin="miter">
</g>
<g fill="none" color="black" stroke="black" stroke-width="1.00" stroke-linecap="butt" stroke-linejoin="miter">
</g>
<g fill="none" color="black" stroke="currentColor" stroke-width="1.00" stroke-linecap="butt" stroke-linejoin="miter">
	<path stroke='black'  d='M62.2,18.1 L62.2,428.0 L615.0,428.0 L615.0,18.1 L62.2,18.1 Z  '/></g>
<g fill="none" color="black" stroke="currentColor" stroke-width="1.00" stroke-linecap="butt" stroke-linejoin="mi
